originals/pre.svg

<svg xmlns="http://www.w3.org/2000/svg" id="pre_svg-Layer_1" data-name="Layer 1" viewBox="0 0 370 370"><defs><style>.pre_svg-cls-1{fill:#2d8eff}</style></defs><path d="M135.17 225.38h32.71a63 63 0 0 0 27.06-6 68 68 0 0 0 21-16.16 75 75 0 0 0 13.33-23.42 76.4 76.4 0 0 0 4.84-27.06 66.2 66.2 0 0 0-5.25-26.25 80.8 80.8 0 0 0-14.13-23 70.9 70.9 0 0 0-21.41-16.55 58 58 0 0 0-27-6.47h-86v208.72h54.92Zm0-94.5H163a15 15 0 0 1 10.1 4.85c3.23 3.23 5.25 8.89 5.25 17.77s-2 14.13-4.85 17c-2.42 2.83-5.65 4.85-9.28 4.85h-29.05Z" class="pre_svg-cls-1"/><path d="M9.44 30.1v309.8a20.1 20.1 0 0 0 20.1 20.1h309.8a20.1 20.1 0 0 0 20.1-20.1V30.1a20.1 20.1 0 0 0-20.1-20.1H29.54a20.1 20.1 0 0 0-20.1 20.1m288.67 288.67H70.35a20.1 20.1 0 0 1-20.11-20.1V70.91a20.1 20.1 0 0 1 20.11-20.1h227.76a20.1 20.1 0 0 1 20.1 20.1v227.76a20.1 20.1 0 0 1-20.1 20.1" class="pre_svg-cls-1"/><path d="M159.8 250.02h128.83v39.58H159.8z" class="pre_svg-cls-1"/></svg>

<svg id="Layer_1" data-name="Layer 1" xmlns="http://www.w3.org/2000/svg" viewBox="0 0 370 370"><defs><style>.cls-1{fill:#2d8eff;}</style></defs><title>presearch-logo-border-blue-transparent</title><path class="cls-1" d="M135.17,225.38h32.71a63,63,0,0,0,27.06-6,68,68,0,0,0,21-16.16,75,75,0,0,0,13.33-23.42,76.44,76.44,0,0,0,4.84-27.06,66.16,66.16,0,0,0-5.25-26.25,80.79,80.79,0,0,0-14.13-23,70.91,70.91,0,0,0-21.41-16.55,58,58,0,0,0-27-6.47h-86V289.19h54.92Zm0-94.5H163a15,15,0,0,1,10.1,4.85c3.23,3.23,5.25,8.89,5.25,17.77s-2,14.13-4.85,17c-2.42,2.83-5.65,4.85-9.28,4.85H135.17Z"/><path class="cls-1" d="M9.44,30.1V339.9A20.1,20.1,0,0,0,29.54,360h309.8a20.1,20.1,0,0,0,20.1-20.1V30.1A20.1,20.1,0,0,0,339.34,10H29.54A20.1,20.1,0,0,0,9.44,30.1ZM298.11,318.77H70.35a20.1,20.1,0,0,1-20.11-20.1V70.91a20.1,20.1,0,0,1,20.11-20.1H298.11a20.1,20.1,0,0,1,20.1,20.1V298.67A20.1,20.1,0,0,1,298.11,318.77Z"/><rect class="cls-1" x="159.8" y="250.02" width="128.83" height="39.58"/></svg>
